svg/content_duplicate.svg

<svg xmlns="http://www.w3.org/2000/svg" viewBox="0 0 24 24"><path d="M11 17H4a2 2 0 0 1-2-2V3a2 2 0 0 1 2-2h12v2H4v12h7v-2l4 3-4 3zm8 4V7H8v6H6V7a2 2 0 0 1 2-2h11a2 2 0 0 1 2 2v14a2 2 0 0 1-2 2H8a2 2 0 0 1-2-2v-2h2v2z"/></svg>

<?xml version="1.0" encoding="UTF-8"?><!DOCTYPE svg PUBLIC "-//W3C//DTD SVG 1.1//EN" "http://www.w3.org/Graphics/SVG/1.1/DTD/svg11.dtd"><svg xmlns="http://www.w3.org/2000/svg" xmlns:xlink="http://www.w3.org/1999/xlink" version="1.1" id="mdi-content-duplicate" width="24" height="24" viewBox="0 0 24 24"><path d="M11,17H4A2,2 0 0,1 2,15V3A2,2 0 0,1 4,1H16V3H4V15H11V13L15,16L11,19V17M19,21V7H8V13H6V7A2,2 0 0,1 8,5H19A2,2 0 0,1 21,7V21A2,2 0 0,1 19,23H8A2,2 0 0,1 6,21V19H8V21H19Z" /></svg>
